X: 8
T: Bobby Casey's Reel
R: reel
Z: 2012 John Chambers <jc@trillian.mit.edu>
B: "100 Essential Irish Session Tunes" 1995 Dave Mallinson, ed.
M: 4/4
L: 1/8
K: D
A |\
"D"DFAB- "G"B2AB | "D"d2fd "G"edBA | "D"DFAB- "G"B2AB | "D"dfaf "A"edBA |\
"D"DFAB- "G"B2AB | "D"d3f "A7"e3g | "D"fgaf "Em"g2fe | "Bm"defd "A"edB :|
|: A |\
"D"d3f "A"eAAe | "D"defg afge | "Bm"d2fd "Em"eB~B2 | "G"gB~B2 dBAB |\
"D"defd "F#7"efge | "Bm"fddf "G"edBd | "D"ABdf "G"bafb | "A7"afeg "D"fd d :|

%%sep 2 1 500
%%sep 1 1 500

